X:131
T: Der verwundete Knab (2-33) S. 105
N: P0906
O: Lothringen
S: PINCK, Louis: Verklingende Weisen, Bd 2, Metz 1928]
R: Liebe, Klage, Tod?]
M: 3/8
L: 1/16
K: G
D2 | G2B2A2 | G2G2ee | d3cBd | A4z2
d2d2d2 | B3cd2
edcBAG | A3Bce | dcB2A2 | G4

